components/icon/svg/24/communication_mail.svg

<?xml version="1.0" encoding="UTF-8"?>
<svg width="24px" height="24px" viewBox="0 0 24 24" version="1.1" xmlns="http://www.w3.org/2000/svg" xmlns:xlink="http://www.w3.org/1999/xlink">
    <!-- Generator: Sketch 64 (93537) - https://sketch.com -->
    <title>ic-db_communication_mail_24</title>
    <desc>Created with Sketch.</desc>
    <g id="Symbols:Icon" stroke="none" stroke-width="1" fill="none" fill-rule="evenodd">
        <g id="24dp-Icon/Communication/Mail" fill="#282D37">
            <path d="M19.9789806,5 C21.1087756,5 21.9684708,5.90877562 21.9684708,6.98949028 L21.9684708,16.028061 C21.9684708,17.6736731 20.642144,19 18.971939,19 L4.99653179,19 C3.32632685,19 2,17.6736731 2,16.028061 L2,6.98949028 C2,5.90877562 2.88418287,5 4.01408303,5 L19.9789806,5 Z M4.01408303,8.21755123 L4.01408303,16.028061 C4.01408303,16.5684708 4.45612191,17.0105097 4.99653179,17.0105097 L18.9965318,17.0105097 C19.5614293,17.0105097 20.0035733,16.5684708 20.0035733,16.028061 L20.0035733,8.26663163 L14.1333684,14.113505 C13.511298,14.7330531 12.7824488,15.0946926 12.0211245,15.0946926 C11.2841829,15.0946926 10.5868628,14.7774041 10.0006306,14.1923279 L4.01408303,8.21755123 Z M18.4316343,6.98949028 L5.61050972,6.98949028 L11.2812401,12.6911193 C11.4781923,12.888597 11.7497635,12.9872832 11.9965318,12.9872832 C12.2434051,12.9872832 12.4651603,12.9128744 12.6383605,12.7412507 L18.4316343,6.98949028 Z" id="🎨-Color"></path>
        </g>
    </g>
</svg>

<svg width="24" height="24" xmlns="http://www.w3.org/2000/svg"><path d="M19.979 5c1.13 0 1.99.909 1.99 1.99v9.038A2.972 2.972 0 0118.971 19H4.997A2.972 2.972 0 012 16.028V6.99C2 5.91 2.884 5 4.014 5H19.98zM4.014 8.218v7.81c0 .54.442.983.983.983h14a.99.99 0 001.007-.983V8.267l-5.87 5.847c-.623.62-1.352.98-2.113.98-.737 0-1.434-.317-2.02-.902L4.014 8.218zm14.418-1.229H5.61l5.67 5.702c.197.198.469.296.716.296a.879.879 0 00.641-.246l5.794-5.752z" fill="#282D37" fill-rule="evenodd"/></svg>
